;Sliced by ideaMaker 4.2.3.5680, 2022-06-22 15:07:21 UTC-0500
;Dimension: 305.000 305.000 305.000 0.400
;Plate Shape: 0
;Origin Center: 0
;Extruder Offset #1: 25.000 0.000
;Filament Diameter #1: 1.750
;Filament Diameter #2: 1.750
;Filament Compensation #1: 94.00
;Filament Compensation #2: 100.00
;Filament Density #1: 1240.00
;Filament Density #2: 1240.00
;Filament Type #1: PLA
;Filament Type #2: 
;Filament Name #1: [Raise3D] PLA 1.75mm
;Filament Name #2: 
;Firmware: Marlin
;Bounding Box: 127.500 177.500 129.956 206.534 0.000 10.370
;Model Gap: 0.200
M221 T0 S94.00
M140 S60.00
M104 T0 S215.00
M109 T0 S215.00
T0
M190 S60.00
G21
G90
M82
M107
G28 X0 Y0
G28 Z0
G1 Z15.0 F300
G92 E0
G1 F140 E29
G1 X20 Y0 F140 E30
G92 E0
G1 F9000.0
M117 Printing...
M1001
;TOTAL_NUM: 2
;PRINTING_TIME: 0
;REMAINING_TIME: 3157
M106 S0
;LAYER:-2
;Z:0.500
;HEIGHT:0.500
;PRINTING: NON-OBJECT
;PRINTING_ID: -1
G0 F9000 X136.321 Y131.637
G0 F300 Z0.500
;TYPE:RAFT
;WIDTH:0.800
G1 F480 X136.726 Y131.292 E0.0885
G1 X137.019 Y131.088 E0.1478
G1 X137.615 Y130.765 E0.2606
G1 X138.093 Y130.581 E0.3458
G1 X138.601 Y130.449 E0.4330
G1 X139.118 Y130.376 E0.5199
G1 X139.561 Y130.356 E0.5936
G1 X165.552 Y130.359 E4.9159
G1 X165.923 Y130.380 E4.9777
G1 X166.454 Y130.461 E5.0671
G1 X167.115 Y130.654 E5.1816
G1 X167.586 Y130.861 E5.2671
G1 X167.891 Y131.031 E5.3252
G1 X168.442 Y131.426 E5.4380
G1 X168.819 Y131.777 E5.5236
G1 X169.159 Y132.176 E5.6108
G1 X169.453 Y132.612 E5.6982
G1 X169.626 Y132.933 E5.7589
G1 X169.877 Y133.555 E5.8704
G1 X170.008 Y134.061 E5.9574
G1 X170.065 Y134.427 E6.0190
G1 X170.100 Y134.999 E6.1143
G1 X170.100 Y165.006 E11.1044
G1 X170.055 Y165.753 E11.2289
G1 X170.049 Y166.230 E11.3082
G1 X170.114 Y166.722 E11.3908
G1 X170.252 Y167.199 E11.4733
G1 X170.456 Y167.652 E11.5560
G1 X170.724 Y168.069 E11.6384
G1 X171.051 Y168.443 E11.7210
G1 X171.427 Y168.766 E11.8034
G1 X171.848 Y169.030 E11.8861
G1 X172.302 Y169.231 E11.9686
G1 X172.772 Y169.360 E12.0497
G1 X173.603 Y169.504 E12.1900
G1 X174.113 Y169.663 E12.2788
G1 X174.427 Y169.795 E12.3354
G1 X175.031 Y170.130 E12.4503
G1 X175.442 Y170.435 E12.5354
G1 X175.718 Y170.685 E12.5973
G1 X176.159 Y171.186 E12.7083
G1 X176.453 Y171.622 E12.7958
G1 X176.626 Y171.943 E12.8564
G1 X176.877 Y172.565 E12.9680
G1 X177.008 Y173.071 E13.0549
G1 X177.065 Y173.437 E13.1165
G1 X177.100 Y174.009 E13.2118
G1 X177.100 Y201.480 E17.7802
G1 X177.076 Y201.958 E17.8598
G1 X176.995 Y202.492 E17.9497
G1 X176.860 Y202.986 E18.0348
G1 X176.669 Y203.465 E18.1206
G1 X176.336 Y204.065 E18.2347
G1 X176.035 Y204.471 E18.3187
G1 X175.679 Y204.853 E18.4056
G1 X175.274 Y205.198 E18.4941
G1 X174.981 Y205.402 E18.5534
G1 X174.385 Y205.725 E18.6662
G1 X173.907 Y205.909 E18.7513
G1 X173.395 Y206.042 E18.8393
G1 X173.030 Y206.099 E18.9008
G1 X172.536 Y206.132 E18.9831
G1 X132.554 Y206.134 E25.6321
G1 X132.076 Y206.110 E25.7117
G1 X131.542 Y206.029 E25.8015
G1 X131.048 Y205.894 E25.8867
G1 X130.569 Y205.703 E25.9725
G1 X129.969 Y205.370 E26.0866
G1 X129.563 Y205.069 E26.1706
G1 X129.181 Y204.713 E26.2575
G1 X128.836 Y204.308 E26.3459
G1 X128.632 Y204.015 E26.4053
G1 X128.368 Y203.545 E26.4950
G1 X128.122 Y202.932 E26.6048
G1 X127.993 Y202.433 E26.6905
G1 X127.920 Y201.916 E26.7773
G1 X127.900 Y201.474 E26.8509
G1 X127.900 Y174.020 E31.4165
G1 X127.925 Y173.535 E31.4973
G1 X128.037 Y172.867 E31.6099
G1 X128.203 Y172.338 E31.7021
G1 X128.402 Y171.886 E31.7843
G1 X128.663 Y171.437 E31.8706
G1 X128.887 Y171.125 E31.9345
G1 X129.316 Y170.651 E32.0408
G1 X129.726 Y170.302 E32.1304
G1 X130.019 Y170.098 E32.1898
G1 X130.615 Y169.775 E32.3025
G1 X131.089 Y169.593 E32.3869
G1 X131.448 Y169.493 E32.4489
G1 X132.370 Y169.327 E32.6047
G1 X132.840 Y169.175 E32.6868
G1 X133.285 Y168.954 E32.7695
G1 X133.693 Y168.671 E32.8520
G1 X134.055 Y168.332 E32.9345
G1 X134.364 Y167.943 E33.0171
G1 X134.613 Y167.515 E33.0995
G1 X134.798 Y167.053 E33.1822
G1 X134.913 Y166.570 E33.2648
G1 X134.957 Y166.077 E33.3471
G1 X134.900 Y165.006 E33.5255
G1 X134.900 Y135.010 E38.5138
G1 X134.924 Y134.532 E38.5934
G1 X135.005 Y133.998 E38.6833
G1 X135.140 Y133.504 E38.7684
G1 X135.331 Y133.025 E38.8542
G1 X135.664 Y132.425 E38.9683
G1 X135.965 Y132.019 E39.0523
G1 X136.321 Y131.637 E39.1392
G0 F9000 X129.684 Y170.705
G1 F480 X129.684 Y204.798 E44.8089
G0 F9000 X132.108 Y205.832
G1 F480 X132.108 Y169.658 E50.8246
G0 F9000 X134.532 Y168.180
G1 F480 X134.532 Y205.854 E57.0898
G0 F9000 X136.956 Y205.854
G1 F480 X136.956 Y131.473 E69.4594
G0 F9000 X139.380 Y130.644
G1 F480 X139.380 Y205.854 E81.9669
G0 F9000 X141.804 Y205.854
G1 F480 X141.804 Y130.637 E94.4756
G0 F9000 X144.228 Y130.637
G1 F480 X144.228 Y205.854 E106.9842
G0 F9000 X146.652 Y205.854
G1 F480 X146.652 Y130.637 E119.4928
G0 F9000 X149.076 Y130.638
G1 F480 X149.076 Y205.854 E132.0013
G0 F9000 X151.500 Y205.854
G1 F480 X151.500 Y130.638 E144.5098
G0 F9000 X153.924 Y130.638
G1 F480 X153.924 Y205.853 E157.0181
G0 F9000 X156.348 Y205.853
G1 F480 X156.348 Y130.638 E169.5264
G0 F9000 X158.772 Y130.639
G1 F480 X158.772 Y205.853 E182.0345
G0 F9000 X161.196 Y205.853
G1 F480 X161.196 Y130.639 E194.5427
G0 F9000 X163.620 Y130.639
G1 F480 X163.620 Y205.853 E207.0508
G0 F9000 X166.044 Y205.853
G1 F480 X166.044 Y130.682 E219.5518
G0 F9000 X168.468 Y131.834
G1 F480 X168.468 Y205.853 E231.8612
G0 F9000 X170.892 Y205.853
G1 F480 X170.892 Y168.676 E238.0438
G0 F9000 X173.316 Y169.739
G1 F480 X173.316 Y205.772 E244.0361
G0 F9000 X175.740 Y204.377
G1 F480 X175.740 Y171.134 E249.5644
;PRINTING_TIME: 191
;REMAINING_TIME: 2966
M106 S255
;LAYER:-2
;Z:1.000
;HEIGHT:0.500
;PRINTING: NON-OBJECT
;PRINTING_ID: -1
G0 F300 Z1.000
G0 F9000 X175.718 Y170.685
;TYPE:RAFT
;WIDTH:0.800
G1 F960 X176.159 Y171.186 E249.6754
G1 X176.453 Y171.622 E249.7629
G1 X176.626 Y171.943 E249.8235
G1 X176.877 Y172.565 E249.9350
G1 X177.008 Y173.071 E250.0220
G1 X177.065 Y173.437 E250.0836
G1 X177.100 Y174.009 E250.1789
G1 X177.100 Y201.480 E254.7473
G1 X177.076 Y201.958 E254.8269
G1 X176.995 Y202.492 E254.9167
G1 X176.860 Y202.986 E255.0019
G1 X176.669 Y203.465 E255.0876
G1 X176.336 Y204.065 E255.2018
G1 X176.035 Y204.471 E255.2858
G1 X175.679 Y204.853 E255.3727
G1 X175.274 Y205.198 E255.4611
G1 X174.981 Y205.402 E255.5205
G1 X174.385 Y205.725 E255.6332
G1 X173.907 Y205.909 E255.7184
G1 X173.395 Y206.042 E255.8064
G1 X173.030 Y206.099 E255.8678
G1 X172.536 Y206.132 E255.9502
G1 X132.554 Y206.134 E262.5992
G1 X132.076 Y206.110 E262.6788
G1 X131.542 Y206.029 E262.7686
G1 X131.048 Y205.894 E262.8538
G1 X130.569 Y205.703 E262.9395
G1 X129.969 Y205.370 E263.0536
G1 X129.563 Y205.069 E263.1377
G1 X129.181 Y204.713 E263.2245
G1 X128.836 Y204.308 E263.3130
G1 X128.632 Y204.015 E263.3724
G1 X128.368 Y203.545 E263.4620
G1 X128.122 Y202.932 E263.5719
G1 X127.993 Y202.433 E263.6576
G1 X127.920 Y201.916 E263.7444
G1 X127.900 Y201.474 E263.8180
G1 X127.900 Y174.020 E268.3836
G1 X127.925 Y173.535 E268.4644
G1 X128.037 Y172.867 E268.5770
G1 X128.203 Y172.338 E268.6692
G1 X128.402 Y171.886 E268.7513
G1 X128.663 Y171.437 E268.8377
G1 X128.887 Y171.125 E268.9016
G1 X129.316 Y170.651 E269.0079
G1 X129.726 Y170.302 E269.0974
G1 X130.019 Y170.098 E269.1568
G1 X130.615 Y169.775 E269.2696
G1 X131.089 Y169.593 E269.3540
G1 X131.448 Y169.493 E269.4160
G1 X132.370 Y169.327 E269.5718
G1 X132.840 Y169.175 E269.6539
G1 X133.285 Y168.954 E269.7365
G1 X133.693 Y168.671 E269.8191
G1 X134.055 Y168.332 E269.9016
G1 X134.364 Y167.943 E269.9842
G1 X134.613 Y167.515 E270.0666
G1 X134.798 Y167.053 E270.1493
G1 X134.913 Y166.570 E270.2319
G1 X134.957 Y166.077 E270.3142
G1 X134.900 Y165.006 E270.4926
G1 X134.900 Y135.010 E275.4809
G1 X134.924 Y134.532 E275.5605
G1 X135.005 Y133.998 E275.6503
G1 X135.140 Y133.504 E275.7355
G1 X135.331 Y133.025 E275.8212
G1 X135.664 Y132.425 E275.9354
G1 X135.965 Y132.019 E276.0194
G1 X136.321 Y131.637 E276.1062
G1 X136.726 Y131.292 E276.1947
G1 X137.019 Y131.088 E276.2541
G1 X137.615 Y130.765 E276.3668
G1 X138.093 Y130.581 E276.4520
G1 X138.601 Y130.449 E276.5393
G1 X139.118 Y130.376 E276.6261
G1 X139.561 Y130.356 E276.6999
G1 X165.552 Y130.359 E281.0222
G1 X165.923 Y130.380 E281.0840
G1 X166.454 Y130.461 E281.1733
G1 X167.115 Y130.654 E281.2878
G1 X167.586 Y130.861 E281.3734
G1 X167.891 Y131.031 E281.4315
G1 X168.442 Y131.426 E281.5442
G1 X168.819 Y131.777 E281.6299
G1 X169.159 Y132.176 E281.7170
G1 X169.453 Y132.612 E281.8045
G1 X169.626 Y132.933 E281.8651
G1 X169.877 Y133.555 E281.9767
G1 X170.008 Y134.061 E282.0636
G1 X170.065 Y134.427 E282.1252
G1 X170.100 Y134.999 E282.2205
G1 X170.100 Y165.006 E287.2107
G1 X170.055 Y165.753 E287.3351
G1 X170.049 Y166.230 E287.4145
G1 X170.114 Y166.722 E287.4970
G1 X170.252 Y167.199 E287.5796
G1 X170.456 Y167.652 E287.6622
G1 X170.724 Y168.069 E287.7446
G1 X171.051 Y168.443 E287.8273
G1 X171.427 Y168.766 E287.9097
G1 X171.848 Y169.030 E287.9923
G1 X172.302 Y169.231 E288.0749
G1 X172.772 Y169.360 E288.1559
G1 X173.603 Y169.504 E288.2962
G1 X174.113 Y169.663 E288.3850
G1 X174.427 Y169.795 E288.4417
G1 X175.031 Y170.130 E288.5565
G1 X175.442 Y170.435 E288.6417
G1 X175.718 Y170.685 E288.7036
G0 F9000 X175.740 Y171.134
G1 F960 X175.740 Y204.377 E294.2319
G0 F9000 X173.316 Y205.772
G1 F960 X173.316 Y169.739 E300.2242
G0 F9000 X170.892 Y168.676
G1 F960 X170.892 Y205.853 E306.4068
G0 F9000 X168.468 Y205.853
G1 F960 X168.468 Y131.834 E318.7162
G0 F9000 X166.044 Y130.682
G1 F960 X166.044 Y205.853 E331.2172
G0 F9000 X163.620 Y205.853
G1 F960 X163.620 Y130.639 E343.7253
G0 F9000 X161.196 Y130.639
G1 F960 X161.196 Y205.853 E356.2335
G0 F9000 X158.772 Y205.853
G1 F960 X158.772 Y130.639 E368.7416
G0 F9000 X156.348 Y130.638
G1 F960 X156.348 Y205.853 E381.2499
G0 F9000 X153.924 Y205.853
G1 F960 X153.924 Y130.638 E393.7582
G0 F9000 X151.500 Y130.638
G1 F960 X151.500 Y205.854 E406.2667
G0 F9000 X149.076 Y205.854
G1 F960 X149.076 Y130.638 E418.7752
G0 F9000 X146.652 Y130.637
G1 F960 X146.652 Y205.854 E431.2838
G0 F9000 X144.228 Y205.854
G1 F960 X144.228 Y130.637 E443.7924
G0 F9000 X141.804 Y130.637
G1 F960 X141.804 Y205.854 E456.3011
G0 F9000 X139.380 Y205.854
G1 F960 X139.380 Y130.644 E468.8086
G0 F9000 X136.956 Y131.473
G1 F960 X136.956 Y205.854 E481.1782
G0 F9000 X134.532 Y205.854
G1 F960 X134.532 Y168.180 E487.4434
G0 F9000 X132.108 Y169.658
G1 F960 X132.108 Y205.832 E493.4591
G0 F9000 X129.684 Y204.798
G1 F960 X129.684 Y170.705 E499.1288
;PRINTING_TIME: 287
;REMAINING_TIME: 2870
;LAYER:-1
;Z:1.380
;HEIGHT:0.380
;PRINTING: NON-OBJECT
;PRINTING_ID: -1
G0 F300 Z1.380
G0 F9000 X131.498 Y205.800
;TYPE:RAFT
;WIDTH:0.600
G1 F1800 X173.491 Y205.800 E503.1094
G0 F9000 X175.628 Y204.600
G1 F1800 X129.366 Y204.600 E507.4946
G0 F9000 X128.535 Y203.400
G1 F1800 X176.464 Y203.400 E512.0379
G0 F9000 X176.826 Y202.200
G1 F1800 X128.171 Y202.200 E516.6500
G0 F9000 X128.109 Y201.000
G1 F1800 X176.890 Y201.000 E521.2740
G0 F9000 X176.890 Y199.800
G1 F1800 X128.109 Y199.800 E525.8980
G0 F9000 X128.109 Y198.600
G1 F1800 X176.890 Y198.600 E530.5220
G0 F9000 X176.890 Y197.400
G1 F1800 X128.109 Y197.400 E535.1460
G0 F9000 X128.109 Y196.200
G1 F1800 X176.890 Y196.200 E539.7701
G0 F9000 X176.890 Y195.000
G1 F1800 X128.109 Y195.000 E544.3941
G0 F9000 X128.109 Y193.800
G1 F1800 X176.890 Y193.800 E549.0181
G0 F9000 X176.890 Y192.600
G1 F1800 X128.109 Y192.600 E553.6421
G0 F9000 X128.109 Y191.400
G1 F1800 X176.890 Y191.400 E558.2661
G0 F9000 X176.890 Y190.200
G1 F1800 X128.109 Y190.200 E562.8902
G0 F9000 X128.109 Y189.000
G1 F1800 X176.890 Y189.000 E567.5142
G0 F9000 X176.890 Y187.800
G1 F1800 X128.109 Y187.800 E572.1382
G0 F9000 X128.109 Y186.600
G1 F1800 X176.890 Y186.600 E576.7622
G0 F9000 X176.890 Y185.400
G1 F1800 X128.109 Y185.400 E581.3862
G0 F9000 X128.109 Y184.200
G1 F1800 X176.890 Y184.200 E586.0102
G0 F9000 X176.890 Y183.000
G1 F1800 X128.109 Y183.000 E590.6343
G0 F9000 X128.109 Y181.800
G1 F1800 X176.890 Y181.800 E595.2583
G0 F9000 X176.890 Y180.600
G1 F1800 X128.109 Y180.600 E599.8823
G0 F9000 X128.109 Y179.400
G1 F1800 X176.890 Y179.400 E604.5063
G0 F9000 X176.890 Y178.200
G1 F1800 X128.109 Y178.200 E609.1303
G0 F9000 X128.109 Y177.000
G1 F1800 X176.890 Y177.000 E613.7544
G0 F9000 X176.890 Y175.800
G1 F1800 X128.109 Y175.800 E618.3784
G0 F9000 X128.109 Y174.600
G1 F1800 X176.890 Y174.600 E623.0024
G0 F9000 X176.848 Y173.400
G1 F1800 X128.160 Y173.400 E627.6176
G0 F9000 X128.493 Y172.200
G1 F1800 X176.504 Y172.200 E632.1686
G0 F9000 X175.716 Y171.000
G1 F1800 X129.282 Y171.000 E636.5702
G0 F9000 X131.135 Y169.800
G1 F1800 X173.850 Y169.800 E640.6192
G0 F9000 X170.912 Y168.600
G1 F1800 X134.076 Y168.600 E644.1109
G0 F9000 X134.885 Y167.400
G1 F1800 X170.113 Y167.400 E647.4502
G0 F9000 X169.839 Y166.200
G1 F1800 X135.158 Y166.200 E650.7377
G0 F9000 X135.110 Y165.000
G1 F1800 X169.890 Y165.000 E654.0345
G0 F9000 X169.890 Y163.800
G1 F1800 X135.110 Y163.800 E657.3314
G0 F9000 X135.110 Y162.600
G1 F1800 X169.890 Y162.600 E660.6282
G0 F9000 X169.890 Y161.400
G1 F1800 X135.110 Y161.400 E663.9251
G0 F9000 X135.110 Y160.200
G1 F1800 X169.890 Y160.200 E667.2219
G0 F9000 X169.890 Y159.000
G1 F1800 X135.110 Y159.000 E670.5188
G0 F9000 X135.110 Y157.800
G1 F1800 X169.890 Y157.800 E673.8156
G0 F9000 X169.890 Y156.600
G1 F1800 X135.110 Y156.600 E677.1124
G0 F9000 X135.110 Y155.400
G1 F1800 X169.890 Y155.400 E680.4093
G0 F9000 X169.890 Y154.200
G1 F1800 X135.110 Y154.200 E683.7061
G0 F9000 X135.110 Y153.000
G1 F1800 X169.890 Y153.000 E687.0030
G0 F9000 X169.890 Y151.800
G1 F1800 X135.110 Y151.800 E690.2998
G0 F9000 X135.110 Y150.600
G1 F1800 X169.890 Y150.600 E693.5967
G0 F9000 X169.890 Y149.400
G1 F1800 X135.110 Y149.400 E696.8935
G0 F9000 X135.110 Y148.200
G1 F1800 X169.890 Y148.200 E700.1904
G0 F9000 X169.890 Y147.000
G1 F1800 X135.110 Y147.000 E703.4872
G0 F9000 X135.110 Y145.800
G1 F1800 X169.890 Y145.800 E706.7840
G0 F9000 X169.890 Y144.600
G1 F1800 X135.110 Y144.600 E710.0809
G0 F9000 X135.110 Y143.400
G1 F1800 X169.890 Y143.400 E713.3777
G0 F9000 X169.890 Y142.200
G1 F1800 X135.110 Y142.200 E716.6746
G0 F9000 X135.110 Y141.000
G1 F1800 X169.890 Y141.000 E719.9714
G0 F9000 X169.890 Y139.800
G1 F1800 X135.110 Y139.800 E723.2683
G0 F9000 X135.110 Y138.600
G1 F1800 X169.890 Y138.600 E726.5651
G0 F9000 X169.890 Y137.400
G1 F1800 X135.110 Y137.400 E729.8620
G0 F9000 X135.110 Y136.200
G1 F1800 X169.890 Y136.200 E733.1588
G0 F9000 X169.890 Y135.000
G1 F1800 X135.112 Y135.000 E736.4555
G0 F9000 X135.277 Y133.800
G1 F1800 X169.724 Y133.800 E739.7207
G0 F9000 X169.192 Y132.600
G1 F1800 X135.808 Y132.600 E742.8852
G0 F9000 X136.939 Y131.400
G1 F1800 X168.046 Y131.400 E745.8339
;PRINTING_TIME: 379
;REMAINING_TIME: 2778
;LAYER:-1
;Z:1.600
;HEIGHT:0.220
;PRINTING: NON-OBJECT
;PRINTING_ID: -1
G0 F300 Z1.600
G0 F9000 X167.966 Y131.258
;TYPE:RAFT
;WIDTH:0.400
G1 F3600 X169.939 Y134.676 E746.0837
G0 F9000 X169.959 Y135.653
G1 F3600 X167.177 Y130.834 E746.4359
G0 F9000 X166.511 Y130.623
G1 F3600 X169.959 Y136.595 E746.8724
G0 F9000 X169.960 Y137.537
G1 F3600 X165.908 Y130.519 E747.3853
G0 F9000 X165.352 Y130.499
G1 F3600 X169.959 Y138.478 E747.9685
G0 F9000 X169.959 Y139.420
G1 F3600 X164.808 Y130.499 E748.6205
G0 F9000 X164.264 Y130.499
G1 F3600 X169.959 Y140.363 E749.3414
G0 F9000 X169.959 Y141.305
G1 F3600 X163.720 Y130.499 E750.1312
G0 F9000 X163.177 Y130.499
G1 F3600 X169.959 Y142.246 E750.9897
G0 F9000 X169.959 Y143.188
G1 F3600 X162.633 Y130.498 E751.9171
G0 F9000 X162.089 Y130.498
G1 F3600 X169.959 Y144.130 E752.9134
G0 F9000 X169.959 Y145.073
G1 F3600 X161.545 Y130.498 E753.9786
G0 F9000 X161.001 Y130.498
G1 F3600 X169.959 Y146.014 E755.1126
G0 F9000 X169.959 Y146.956
G1 F3600 X160.457 Y130.498 E756.3154
G0 F9000 X159.913 Y130.498
G1 F3600 X169.959 Y147.898 E757.5871
G0 F9000 X169.959 Y148.841
G1 F3600 X159.369 Y130.498 E758.9277
G0 F9000 X158.825 Y130.498
G1 F3600 X169.959 Y149.782 E760.3371
G0 F9000 X169.959 Y150.724
G1 F3600 X158.282 Y130.498 E761.8154
G0 F9000 X157.738 Y130.498
G1 F3600 X169.959 Y151.666 E763.3624
G0 F9000 X169.959 Y152.608
G1 F3600 X157.194 Y130.498 E764.9783
G0 F9000 X156.650 Y130.498
G1 F3600 X169.959 Y153.550 E766.6631
